X:11
T:Miss Whitlock's Delight
%%VWML:RutherfordSelect-4785-p11-0
F:http://www.vwml.org/record/RutherfordSelect/4785/p11
Z:Transcribed by David Jacobs February 2016
S:12 Selected Country Dances 1772, John Rutherford
L:1/8
M:C
K:Gm
V:1     clef=treble
V:2     clef=bass
V:1 
GABc dedc|BAG^F GD!trill!D2|GABc dedc|BAG^FG4:|
BAde fgfe|dcBA BF!trill!F2|Bcde fgfe|dcBAB4:|
bag^f g=fed|edcB {B}A2G^F|GABc dg^fg|dcBAG4:|
V:2
G,2G,,2B,,2C,2|D,2D,,2G,,4|G,2G,,2B,,2C,2|D,2D,,2G,,4:|
B,2B,,2D,2E,2|F,2F,,2B,,4|B,2B,,2D,2E,2|F,2F,,2B,,4:|
G,2A,2B,2=B,2|B,2^C2D2D,2|G,2G,,2B,,2C,2|D,2D,,2G,,4:|
W:
W:The first and 2nd Cu. foot it and change sides.|
W:The same back again:|:
W:Foot it left hands back again :|:
W:Cross over and turn .||. Right and left at top:||:

